icons/compodoc.svg

<svg width="16" height="16" viewBox="0 0 16 16" fill="none" xmlns="http://www.w3.org/2000/svg">
<rect x="9.06239" y="3" width="1.80954" height="10.6445" transform="rotate(19.4307 9.06239 3)" fill="#E73440"/>
<path fill-rule="evenodd" clip-rule="evenodd" d="M5.39681 5.9243L4.37623 4.90372L1.27389 8.00605L1.27533 8.00749L1 8.28283L4.37623 11.6591L5.39682 10.6385L3.03973 8.28139L5.39681 5.9243Z" fill="#F1C40F"/>
<path fill-rule="evenodd" clip-rule="evenodd" d="M15.0476 8.55528L15.3229 8.27995L11.9467 4.90372L10.9261 5.9243L13.2832 8.28139L10.9261 10.6385L11.9467 11.6591L15.049 8.55673L15.0476 8.55528Z" fill="#3498DB"/>
</svg>

<svg xmlns="http://www.w3.org/2000/svg" width="16" height="16" fill="none"><path fill="#E73440" d="m9.062 3 1.707.602-3.541 10.039-1.707-.602z"/><path fill="#F1C40F" fill-rule="evenodd" d="m5.397 5.924-1.02-1.02-3.103 3.102.001.001L1 8.283l3.376 3.376 1.02-1.02L3.04 8.28l2.357-2.357Z" clip-rule="evenodd"/><path fill="#3498DB" fill-rule="evenodd" d="m15.048 8.555.275-.275-3.376-3.376-1.02 1.02 2.356 2.357-2.357 2.357 1.02 1.021 3.103-3.102-.001-.002Z" clip-rule="evenodd"/></svg>
